src/assets/userAdd.svg

<svg fill="none" height="24" viewBox="0 0 24 24" width="24" xmlns="http://www.w3.org/2000/svg"><g stroke="#101010" stroke-linecap="round" stroke-linejoin="round" stroke-width="1.5"><path d="m12 12c2.7614 0 5-2.23858 5-5s-2.2386-5-5-5c-2.76142 0-5 2.23858-5 5s2.23858 5 5 5z"/><path d="m3.41003 22c0-3.87 3.85-7 8.58997-7 .96 0 1.89.13 2.76.37"/><g stroke-miterlimit="10"><path d="m22 18c0 .32-.04.63-.12.93-.09.4-.25.79-.46 1.13-.69 1.16-1.96 1.94-3.42 1.94-1.03 0-1.96-.39-2.66-1.03-.3-.26-.56-.57-.76-.91-.37-.6-.58-1.31-.58-2.06 0-1.08.43-2.07 1.13-2.79.73-.75 1.75-1.21 2.87-1.21 1.18 0 2.25.51 2.97 1.33.64.71 1.03 1.65 1.03 2.67z"/><path d="m19.49 17.98h-2.98"/><path d="m18 16.52v2.99"/></g></g></svg>

<svg width="24" height="24" viewBox="0 0 24 24" fill="none" xmlns="http://www.w3.org/2000/svg">
<path d="M12 12C14.7614 12 17 9.76142 17 7C17 4.23858 14.7614 2 12 2C9.23858 2 7 4.23858 7 7C7 9.76142 9.23858 12 12 12Z" stroke="#101010" stroke-width="1.5" stroke-linecap="round" stroke-linejoin="round"/>
<path d="M3.41003 22C3.41003 18.13 7.26003 15 12 15C12.96 15 13.89 15.13 14.76 15.37" stroke="#101010" stroke-width="1.5" stroke-linecap="round" stroke-linejoin="round"/>
<path d="M22 18C22 18.32 21.96 18.63 21.88 18.93C21.79 19.33 21.63 19.72 21.42 20.06C20.73 21.22 19.46 22 18 22C16.97 22 16.04 21.61 15.34 20.97C15.04 20.71 14.78 20.4 14.58 20.06C14.21 19.46 14 18.75 14 18C14 16.92 14.43 15.93 15.13 15.21C15.86 14.46 16.88 14 18 14C19.18 14 20.25 14.51 20.97 15.33C21.61 16.04 22 16.98 22 18Z" stroke="#101010" stroke-width="1.5" stroke-miterlimit="10" stroke-linecap="round" stroke-linejoin="round"/>
<path d="M19.49 17.98H16.51" stroke="#101010" stroke-width="1.5" stroke-miterlimit="10" stroke-linecap="round" stroke-linejoin="round"/>
<path d="M18 16.52V19.51" stroke="#101010" stroke-width="1.5" stroke-miterlimit="10" stroke-linecap="round" stroke-linejoin="round"/>
</svg>
